dcp/NIKON Z 50.dcp.xml
<?xml version="1.0" encoding="UTF-8"?>
<dcpData>
  <ProfileName>NIKON Z 50</ProfileName>
  <CalibrationIlluminant1>17</CalibrationIlluminant1>
  <CalibrationIlluminant2>21</CalibrationIlluminant2>
  <ColorMatrix1 Rows="3" Cols="3">
    <Element Row="2" Col="2">0.731500</Element>
    <Element Row="2" Col="1">0.180100</Element>
    <Element Row="2" Col="0">-0.123900</Element>
    <Element Row="1" Col="2">0.307500</Element>
    <Element Row="1" Col="1">1.237500</Element>
    <Element Row="1" Col="0">-0.509400</Element>
    <Element Row="0" Col="2">-0.032800</Element>
    <Element Row="0" Col="1">-0.451300</Element>
    <Element Row="0" Col="0">1.058700</Element>
  </ColorMatrix1>
  <ColorMatrix2 Rows="3" Cols="3">
    <Element Row="2" Col="2">0.750500</Element>
    <Element Row="2" Col="1">0.216100</Element>
    <Element Row="2" Col="0">-0.133100</Element>
    <Element Row="1" Col="2">0.294300</Element>
    <Element Row="1" Col="1">1.169600</Element>
    <Element Row="1" Col="0">-0.434000</Element>
    <Element Row="0" Col="2">-0.068400</Element>
    <Element Row="0" Col="1">-0.205100</Element>
    <Element Row="0" Col="0">0.810900</Element>
  </ColorMatrix2>
  <ForwardMatrix1 Rows="3" Cols="3">
    <Element Row="2" Col="2">0.701200</Element>
    <Element Row="2" Col="1">0.123500</Element>
    <Element Row="2" Col="0">0.000500</Element>
    <Element Row="1" Col="2">0.029900</Element>
    <Element Row="1" Col="1">0.690200</Element>
    <Element Row="1" Col="0">0.279900</Element>
    <Element Row="0" Col="2">0.109200</Element>
    <Element Row="0" Col="1">0.144000</Element>
    <Element Row="0" Col="0">0.711100</Element>
  </ForwardMatrix1>
  <ForwardMatrix2 Rows="3" Cols="3">
    <Element Row="2" Col="2">0.821200</Element>
    <Element Row="2" Col="1">0.003800</Element>
    <Element Row="2" Col="0">0.000100</Element>
    <Element Row="1" Col="2">0.055800</Element>
    <Element Row="1" Col="1">0.644300</Element>
    <Element Row="1" Col="0">0.299900</Element>
    <Element Row="0" Col="2">0.185400</Element>
    <Element Row="0" Col="1">0.122000</Element>
    <Element Row="0" Col="0">0.656900</Element>
  </ForwardMatrix2>
  <ReductionMatrix1 Rows="0" Cols="0"/>
  <ReductionMatrix2 Rows="0" Cols="0"/>
  <Copyright>public domain</Copyright>
  <EmbedPolicy>3</EmbedPolicy>
  <ProfileHueSatMapEncoding>0</ProfileHueSatMapEncoding>
  <HueSatDeltas1 hueDivisions="90" satDivisions="30" valDivisions="1">
    <Element HueDiv="0" SatDiv="0" ValDiv="0" HueShift="0.000000" SatScale="1.000000" ValScale="1.000000"/>
    <Element HueDiv="0" SatDiv="1" ValDiv="0" HueShift="-1.715527" SatScale="1.127229" ValScale="1.001325"/>
    <Element HueDiv="0" SatDiv="2" ValDiv="0" HueShift="-1.097381" SatScale="1.134868" ValScale="1.003128"/>
    <Element HueDiv="0" SatDiv="3" ValDiv="0" HueShift="-1.268551" SatScale="1.141410" ValScale="1.005365"/>
    <Element HueDiv="0" SatDiv="4" ValDiv="0" HueShift="-1.830677" SatScale="1.146634" ValScale="1.007962"/>
    <Element HueDiv="0" SatDiv="5" ValDiv="0" HueShift="-2.532704" SatScale="1.150122" ValScale="1.010783"/>
    <Element HueDiv="0" SatDiv="6" ValDiv="0" HueShift="-3.194117" SatScale="1.151273" ValScale="1.013586"/>
    <Element HueDiv="0" SatDiv="7" ValDiv="0" HueShift="-3.701933" SatScale="1.149341" ValScale="1.015989"/>
    <Element HueDiv="0" SatDiv="8" ValDiv="0" HueShift="-4.058392" SatScale="1.143533" ValScale="1.017440"/>
    <Element HueDiv="0" SatDiv="9" ValDiv="0" HueShift="-4.491413" SatScale="1.133211" ValScale="1.017252"/>
    <Element HueDiv="0" SatDiv="10" ValDiv="0" HueShift="-5.444509" SatScale="1.118492" ValScale="1.014826"/>
    <Element HueDiv="0" SatDiv="11" ValDiv="0" HueShift="-6.934843" SatScale="1.101587" ValScale="1.010339"/>
    <Element HueDiv="0" SatDiv="12" ValDiv="0" HueShift="-8.466771" SatScale="1.086104" ValScale="1.004942"/>
    <Element HueDiv="0" SatDiv="13" ValDiv="0" HueShift="-9.744552" SatScale="1.075194" ValScale="1.000240"/>
    <Element HueDiv="0" SatDiv="14" ValDiv="0" HueShift="-10.713920" SatScale="1.071404" ValScale="0.998205"/>
    <Element HueDiv="0" SatDiv="15" ValDiv="0" HueShift="-11.380872" SatScale="1.076703" ValScale="1.001220"/>
    <Element HueDiv="0" SatDiv="16" ValDiv="0" HueShift="-11.662598" SatScale="1.090481" ValScale="1.011472"/>
    <Element HueDiv="0" SatDiv="17" ValDiv="0" HueShift="-11.457437" SatScale="1.095634" ValScale="1.023442"/>
    <Element HueDiv="0" SatDiv="18" ValDiv="0" HueShift="-10.731544" SatScale="1.087560" ValScale="1.027143"/>
    <Element HueDiv="0" SatDiv="19" ValDiv="0" HueShift="-9.650706" SatScale="1.069017" ValScale="1.021208"/>
    <Element HueDiv="0" SatDiv="20" ValDiv="0" HueShift="-8.597407" SatScale="1.048933" ValScale="1.011992"/>
    <Element HueDiv="0" SatDiv="21" ValDiv="0" HueShift="-8.006342" SatScale="1.034058" ValScale="1.006313"/>
    <Element HueDiv="0" SatDiv="22" ValDiv="0" HueShift="-8.137603" SatScale="1.027228" ValScale="1.008765"/>
    <Element HueDiv="0" SatDiv="23" ValDiv="0" HueShift="-8.782070" SatScale="1.025688" ValScale="1.018263"/>
    <Element HueDiv="0" SatDiv="24" ValDiv="0" HueShift="-9.645298" SatScale="1.026078" ValScale="1.032086"/>
    <Element HueDiv="0" SatDiv="25" ValDiv="0" HueShift="-10.544472" SatScale="1.026448" ValScale="1.048206"/>
    <Element HueDiv="0" SatDiv="26" ValDiv="0" HueShift="-11.374328" SatScale="1.025760" ValScale="1.065037"/>
    <Element HueDiv="0" SatDiv="27" ValDiv="0" HueShift="-12.073470" SatScale="1.023499" ValScale="1.081199"/>
    <Element HueDiv="0" SatDiv="28" ValDiv="0" HueShift="-10.005749" SatScale="0.985874" ValScale="1.069994"/>
    <Element HueDiv="0" SatDiv="29" ValDiv="0" HueShift="-10.381285" SatScale="0.982455" ValScale="1.078305"/>
    <Element HueDiv="1" SatDiv="0" ValDiv="0" HueShift="0.000000" SatScale="1.000000" ValScale="1.000000"/>
    <Element HueDiv="1" SatDiv="1" ValDiv="0" HueShift="0.308092" SatScale="1.118249" ValScale="1.001077"/>
    <Element HueDiv="1" SatDiv="2" ValDiv="0" HueShift="0.902759" SatScale="1.137998" ValScale="1.002580"/>
    <Element HueDiv="1" SatDiv="3" ValDiv="0" HueShift="0.881187" SatScale="1.144132" ValScale="1.004462"/>
    <Element HueDiv="1" SatDiv="4" ValDiv="0" HueShift="0.558802" SatScale="1.142780" ValScale="1.006662"/>
    <Element HueDiv="1" SatDiv="5" ValDiv="0" HueShift="0.120547" SatScale="1.137578" ValScale="1.009074"/>
    <Element HueDiv="1" SatDiv="6" ValDiv="0" HueShift="-0.297467" SatScale="1.130976" ValScale="1.011531"/>
    <Element HueDiv="1" SatDiv="7" ValDiv="0" HueShift="-0.597283" SatScale="1.124445" ValScale="1.013773"/>
    <Element HueDiv="1" SatDiv="8" ValDiv="0" HueShift="-0.743553" SatScale="1.118080" ValScale="1.015432"/>
    <Element HueDiv="1" SatDiv="9" ValDiv="0" HueShift="-0.832264" SatScale="1.109402" ValScale="1.016026"/>
    <Element HueDiv="1" SatDiv="10" ValDiv="0" HueShift="-1.214030" SatScale="1.091209" ValScale="1.014970"/>
    <Element HueDiv="1" SatDiv="11" ValDiv="0" HueShift="-2.338429" SatScale="1.056161" ValScale="1.011871"/>
    <Element HueDiv="1" SatDiv="12" ValDiv="0" HueShift="-3.936360" SatScale="1.013707" ValScale="1.007339"/>
    <Element HueDiv="1" SatDiv="13" ValDiv="0" HueShift="-5.470945" SatScale="1.000830" ValScale="1.002661"/>
    <Element HueDiv="1" SatDiv="14" ValDiv="0" HueShift="-6.731230" SatScale="0.994084" ValScale="0.999438"/>
    <Element HueDiv="1" SatDiv="15" ValDiv="0" HueShift="-7.757079" SatScale="0.994678" ValScale="0.999719"/>
    <Element HueDiv="1" SatDiv="16" ValDiv="0" HueShift="-8.615051" SatScale="1.004196" ValScale="1.005860"/>
    <Element HueDiv="1" SatDiv="17" ValDiv="0" HueShift="-9.252913" SatScale="1.021310" ValScale="1.019021"/>
    <Element HueDiv="1" SatDiv="18" ValDiv="0" HueShift="-9.395096" SatScale="1.034776" ValScale="1.033133"/>
    <Element HueDiv="1" SatDiv="19" ValDiv="0" HueShift="-8.660420" SatScale="1.026881" ValScale="1.033612"/>
    <Element HueDiv="1" SatDiv="20" ValDiv="0" HueShift="-7.398350" SatScale="1.008045" ValScale="1.023157"/>
    <Element HueDiv="1" SatDiv="21" ValDiv="0" HueShift="-6.199461" SatScale="0.989331" ValScale="1.010736"/>
    <Element HueDiv="1" SatDiv="22" ValDiv="0" HueShift="-5.752818" SatScale="0.978488" ValScale="1.004954"/>
    <Element HueDiv="1" SatDiv="23" ValDiv="0" HueShift="-6.347476" SatScale="0.977712" ValScale="1.010506"/>
    <Element HueDiv="1" SatDiv="24" ValDiv="0" HueShift="-7.418670" SatScale="0.981162" ValScale="1.022866"/>
    <Element HueDiv="1" SatDiv="25" ValDiv="0" HueShift="-8.604034" SatScale="0.985366" ValScale="1.038768"/>
    <Element HueDiv="1" SatDiv="26" ValDiv="0" HueShift="-9.721517" SatScale="0.988656" ValScale="1.056139"/>
    <Element HueDiv="1" SatDiv="27" ValDiv="0" HueShift="-10.672923" SatScale="0.990201" ValScale="1.073296"/>
    <Element HueDiv="1" SatDiv="28" ValDiv="0" HueShift="-11.408332" SatScale="0.989668" ValScale="1.088783"/>
    <Element HueDiv="1" SatDiv="29" ValDiv="0" HueShift="-8.831031" SatScale="0.982948" ValScale="1.071185"/>
    <Element HueDiv="2" SatDiv="0" ValDiv="0" HueShift="0.000000" SatScale="1.000000" ValScale="1.000000"/>
    <Element HueDiv="2" SatDiv="1" ValDiv="0" HueShift="2.150293" SatScale="1.141861" ValScale="1.000830"/>
    <Element HueDiv="2" SatDiv="2" ValDiv="0" HueShift="2.678272" SatScale="1.161944" ValScale="1.002036"/>
    <Element HueDiv="2" SatDiv="3" ValDiv="0" HueShift="2.750386" SatScale="1.170388" ValScale="1.003572"/>
    <Element HueDiv="2" SatDiv="4" ValDiv="0" HueShift="2.604368" SatScale="1.172431" ValScale="1.005382"/>
    <Element HueDiv="2" SatDiv="5" ValDiv="0" HueShift="2.373600" SatScale="1.171082" ValScale="1.007384"/>
    <Element HueDiv="2" SatDiv="6" ValDiv="0" HueShift="2.151791" SatScale="1.168336" ValScale="1.009463"/>
    <Element HueDiv="2" SatDiv="7" ValDiv="0" HueShift="2.006132" SatScale="1.165455" ValScale="1.011447"/>
    <Element HueDiv="2" SatDiv="8" ValDiv="0" HueShift="1.971547" SatScale="1.162867" ValScale="1.013102"/>
    <Element HueDiv="2" SatDiv="9" ValDiv="0" HueShift="2.027002" SatScale="1.159671" ValScale="1.014121"/>
    <Element HueDiv="2" SatDiv="10" ValDiv="0" HueShift="2.038336" SatScale="1.152315" ValScale="1.014108"/>
    <Element HueDiv="2" SatDiv="11" ValDiv="0" HueShift="1.621551" SatScale="1.131485" ValScale="1.012510"/>
    <Element HueDiv="2" SatDiv="12" ValDiv="0" HueShift="0.502504" SatScale="1.092891" ValScale="1.009124"/>
    <Element HueDiv="2" SatDiv="13" ValDiv="0" HueShift="-0.818424" SatScale="1.052414" ValScale="1.004910"/>
    <Element HueDiv="2" SatDiv="14" ValDiv="0" HueShift="-2.025080" SatScale="1.019272" ValScale="1.001082"/>
    <Element HueDiv="2" SatDiv="15" ValDiv="0" HueShift="-3.068011" SatScale="0.995955" ValScale="0.999150"/>
    <Element HueDiv="2" SatDiv="16" ValDiv="0" HueShift="-4.033988" SatScale="0.982315" ValScale="1.001082"/>
    <Element HueDiv="2" SatDiv="17" ValDiv="0" HueShift="-5.024746" SatScale="0.977205" ValScale="1.008945"/>
    <Element HueDiv="2" SatDiv="18" ValDiv="0" HueShift="-5.998179" SatScale="0.978880" ValScale="1.023240"/>
    <Element HueDiv="2" SatDiv="19" ValDiv="0" HueShift="-6.641842" SatScale="0.984402" ValScale="1.039350"/>
    <Element HueDiv="2" SatDiv="20" ValDiv="0" HueShift="-6.120414" SatScale="0.989934" ValScale="1.040182"/>
    <Element HueDiv="2" SatDiv="21" ValDiv="0" HueShift="-4.832685" SatScale="0.995722" ValScale="1.027639"/>
    <Element HueDiv="2" SatDiv="22" ValDiv="0" HueShift="-3.590592" SatScale="1.000918" ValScale="1.012708"/>
    <Element HueDiv="2" SatDiv="23" ValDiv="0" HueShift="-3.283906" SatScale="0.999702" ValScale="1.006479"/>
    <Element HueDiv="2" SatDiv="24" ValDiv="0" HueShift="-4.235385" SatScale="0.989057" ValScale="1.014778"/>
    <Element HueDiv="2" SatDiv="25" ValDiv="0" HueShift="-5.601079" SatScale="0.975048" ValScale="1.029492"/>
    <Element HueDiv="2" SatDiv="26" ValDiv="0" HueShift="-7.043719" SatScale="0.960301" ValScale="1.047255"/>
    <Element HueDiv="2" SatDiv="27" ValDiv="0" HueShift="-8.359278" SatScale="0.952149" ValScale="1.065643"/>
    <Element HueDiv="2" SatDiv="28" ValDiv="0" HueShift="-9.392422" SatScale="0.956756" ValScale="1.082604"/>
    <Element HueDiv="2" SatDiv="29" ValDiv="0" HueShift="-7.905290" SatScale="0.989242" ValScale="1.066719"/>
    <Element HueDiv="3" SatDiv="0" ValDiv="0" HueShift="0.000000" SatScale="1.000000" ValScale="1.000000"/>
    <Element HueDiv="3" SatDiv="1" ValDiv="0" HueShift="3.770859" SatScale="1.165883" ValScale="1.000584"/>
    <Element HueDiv="3" SatDiv="2" ValDiv="0" HueShift="4.226878" SatScale="1.186067" ValScale="1.001498"/>
    <Element HueDiv="3" SatDiv="3" ValDiv="0" HueShift="4.348166" SatScale="1.196260" ValScale="1.002694"/>
    <Element HueDiv="3" SatDiv="4" ValDiv="0" HueShift="4.311406" SatScale="1.200924" ValScale="1.004122"/>
    <Element HueDiv="3" SatDiv="5" ValDiv="0" HueShift="4.210650" SatScale="1.202532" ValScale="1.005718"/>
    <Element HueDiv="3" SatDiv="6" ValDiv="0" HueShift="4.107955" SatScale="1.202667" ValScale="1.007400"/>
    <Element HueDiv="3" SatDiv="7" ValDiv="0" HueShift="4.045575" SatScale="1.202323" ValScale="1.009058"/>
    <Element HueDiv="3" SatDiv="8" ValDiv="0" HueShift="4.046975" SatScale="1.201940" ValScale="1.010548"/>
    <Element HueDiv="3" SatDiv="9" ValDiv="0" HueShift="4.110923" SatScale="1.201249" ValScale="1.011690"/>
    <Element HueDiv="3" SatDiv="10" ValDiv="0" HueShift="4.196384" SatScale="1.198845" ValScale="1.012248"/>
    <Element HueDiv="3" SatDiv="11" ValDiv="0" HueShift="4.179425" SatScale="1.190915" ValScale="1.011901"/>
    <Element HueDiv="3" SatDiv="12" ValDiv="0" HueShift="3.652095" SatScale="1.165440" ValScale="1.010008"/>
    <Element HueDiv="3" SatDiv="13" ValDiv="0" HueShift="2.616284" SatScale="1.125459" ValScale="1.006671"/>
    <Element HueDiv="3" SatDiv="14" ValDiv="0" HueShift="1.575693" SatScale="1.088484" ValScale="1.002964"/>
    <Element HueDiv="3" SatDiv="15" ValDiv="0" HueShift="0.673288" SatScale="1.059644" ValScale="0.999865"/>
    <Element HueDiv="3" SatDiv="16" ValDiv="0" HueShift="-0.109080" SatScale="1.039881" ValScale="0.998666"/>
    <Element HueDiv="3" SatDiv="17" ValDiv="0" HueShift="-0.887714" SatScale="1.028193" ValScale="1.001081"/>
    <Element HueDiv="3" SatDiv="18" ValDiv="0" HueShift="-1.790248" SatScale="1.022617" ValScale="1.008855"/>
    <Element HueDiv="3" SatDiv="19" ValDiv="0" HueShift="-2.800605" SatScale="1.021000" ValScale="1.022180"/>
    <Element HueDiv="3" SatDiv="20" ValDiv="0" HueShift="-3.629016" SatScale="1.021506" ValScale="1.037066"/>
    <Element HueDiv="3" SatDiv="21" ValDiv="0" HueShift="-3.709377" SatScale="1.022880" ValScale="1.042965"/>
    <Element HueDiv="3" SatDiv="22" ValDiv="0" HueShift="-3.007613" SatScale="1.025145" ValScale="1.036148"/>
    <Element HueDiv="3" SatDiv="23" ValDiv="0" HueShift="-2.125384" SatScale="1.027639" ValScale="1.024586"/>
    <Element HueDiv="3" SatDiv="24" ValDiv="0" HueShift="-1.630465" SatScale="1.027182" ValScale="1.016022"/>
    <Element HueDiv="3" SatDiv="25" ValDiv="0" HueShift="-2.077650" SatScale="1.019124" ValScale="1.018631"/>
    <Element HueDiv="3" SatDiv="26" ValDiv="0" HueShift="-3.121093" SatScale="1.006036" ValScale="1.029712"/>
    <Element HueDiv="3" SatDiv="27" ValDiv="0" HueShift="-4.353411" SatScale="0.991358" ValScale="1.044956"/>
    <Element HueDiv="3" SatDiv="28" ValDiv="0" HueShift="-5.557381" SatScale="0.977007" ValScale="1.061815"/>
    <Element HueDiv="3" SatDiv="29" ValDiv="0" HueShift="-6.413233" SatScale="0.994220" ValScale="1.061947"/>
    <Element HueDiv="4" SatDiv="0" ValDiv="0" HueShift="0.000000" SatScale="1.000000" ValScale="1.000000"/>
    <Element HueDiv="4" SatDiv="1" ValDiv="0" HueShift="5.178843" SatScale="1.190363" ValScale="1.000340"/>
    <Element HueDiv="4" SatDiv="2" ValDiv="0" HueShift="5.563324" SatScale="1.210488" ValScale="1.000965"/>
    <Element HueDiv="4" SatDiv="3" ValDiv="0" HueShift="5.703475" SatScale="1.221963" ValScale="1.001829"/>
    <Element HueDiv="4" SatDiv="4" ValDiv="0" HueShift="5.729013" SatScale="1.228587" ValScale="1.002885"/>
    <Element HueDiv="4" SatDiv="5" ValDiv="0" HueShift="5.704852" SatScale="1.232381" ValScale="1.004082"/>
    <Element HueDiv="4" SatDiv="6" ValDiv="0" HueShift="5.670486" SatScale="1.234576" ValScale="1.005358"/>
    <Element HueDiv="4" SatDiv="7" ValDiv="0" HueShift="5.650061" SatScale="1.235901" ValScale="1.006646"/>
    <Element HueDiv="4" SatDiv="8" ValDiv="0" HueShift="5.655019" SatScale="1.236664" ValScale="1.007860"/>
    <Element HueDiv="4" SatDiv="9" ValDiv="0" HueShift="5.683590" SatScale="1.236718" ValScale="1.008901"/>
    <Element HueDiv="4" SatDiv="10" ValDiv="0" HueShift="5.717449" SatScale="1.235324" ValScale="1.009640"/>
    <Element HueDiv="4" SatDiv="11" ValDiv="0" HueShift="5.711438" SatScale="1.230749" ValScale="1.009896"/>
    <Element HueDiv="4" SatDiv="12" ValDiv="0" HueShift="5.549762" SatScale="1.218673" ValScale="1.009355"/>
    <Element HueDiv="4" SatDiv="13" ValDiv="0" HueShift="4.936613" SatScale="1.188824" ValScale="1.007403"/>
    <Element HueDiv="4" SatDiv="14" ValDiv="0" HueShift="4.097166" SatScale="1.152014" ValScale="1.004485"/>
    <Element HueDiv="4" SatDiv="15" ValDiv="0" HueShift="3.316794" SatScale="1.119682" ValScale="1.001364"/>
    <Element HueDiv="4" SatDiv="16" ValDiv="0" HueShift="2.673700" SatScale="1.095142" ValScale="0.998752"/>
    <Element HueDiv="4" SatDiv="17" ValDiv="0" HueShift="2.135889" SatScale="1.078658" ValScale="0.997612"/>
    <Element HueDiv="4" SatDiv="18" ValDiv="0" HueShift="1.590376" SatScale="1.068804" ValScale="0.999281"/>
    <Element HueDiv="4" SatDiv="19" ValDiv="0" HueShift="0.888186" SatScale="1.063154" ValScale="1.005338"/>
    <Element HueDiv="4" SatDiv="20" ValDiv="0" HueShift="-0.017883" SatScale="1.059267" ValScale="1.016330"/>
    <Element HueDiv="4" SatDiv="21" ValDiv="0" HueShift="-0.904683" SatScale="1.056052" ValScale="1.029427"/>
    <Element HueDiv="4" SatDiv="22" ValDiv="0" HueShift="-1.410488" SatScale="1.053552" ValScale="1.038735"/>
    <Element HueDiv="4" SatDiv="23" ValDiv="0" HueShift="-1.382138" SatScale="1.052033" ValScale="1.040178"/>
    <Element HueDiv="4" SatDiv="24" ValDiv="0" HueShift="-1.042376" SatScale="1.051075" ValScale="1.035795"/>
    <Element HueDiv="4" SatDiv="25" ValDiv="0" HueShift="-0.748903" SatScale="1.049037" ValScale="1.030517"/>
    <Element HueDiv="4" SatDiv="26" ValDiv="0" HueShift="-0.840654" SatScale="1.043433" ValScale="1.029562"/>
    <Element HueDiv="4" SatDiv="27" ValDiv="0" HueShift="-1.425101" SatScale="1.033298" ValScale="1.035453"/>
    <Element HueDiv="4" SatDiv="28" ValDiv="0" HueShift="-3.225354" SatScale="1.018558" ValScale="1.047508"/>
    <Element HueDiv="4" SatDiv="29" ValDiv="0" HueShift="-4.125128" SatScale="1.006852" ValScale="1.054327"/>
    <Element HueDiv="5" SatDiv="0" ValDiv="0" HueShift="0.000000" SatScale="1.000000" ValScale="1.000000"/>
    <Element HueDiv="5" SatDiv="1" ValDiv="0" HueShift="6.382197" SatScale="1.215351" ValScale="1.000097"/>
    <Element HueDiv="5" SatDiv="2" ValDiv="0" HueShift="6.699381" SatScale="1.235330" ValScale="1.000437"/>
    <Element HueDiv="5" SatDiv="3" ValDiv="0" HueShift="6.838863" SatScale="1.247715" ValScale="1.000977"/>
    <Element HueDiv="5" SatDiv="4" ValDiv="0" HueShift="6.894954" SatScale="1.255749" ValScale="1.001672"/>
    <Element HueDiv="5" SatDiv="5" ValDiv="0" HueShift="6.911594" SatScale="1.261085" ValScale="1.002478"/>
    <Element HueDiv="5" SatDiv="6" ValDiv="0" HueShift="6.912958" SatScale="1.264667" ValScale="1.003351"/>
    <Element HueDiv="5" SatDiv="7" ValDiv="0" HueShift="6.911326" SatScale="1.267000" ValScale="1.004245"/>
    <Element HueDiv="5" SatDiv="8" ValDiv="0" HueShift="6.909601" SatScale="1.268238" ValScale="1.005113"/>
    <Element HueDiv="5" SatDiv="9" ValDiv="0" HueShift="6.901965" SatScale="1.268189" ValScale="1.005905"/>
    <Element HueDiv="5" SatDiv="10" ValDiv="0" HueShift="6.873563" SatScale="1.266269" ValScale="1.006560"/>
    <Element HueDiv="5" SatDiv="11" ValDiv="0" HueShift="6.798187" SatScale="1.261339" ValScale="1.006987"/>
    <Element HueDiv="5" SatDiv="12" ValDiv="0" HueShift="6.629123" SatScale="1.251266" ValScale="1.007021"/>
    <Element HueDiv="5" SatDiv="13" ValDiv="0" HueShift="6.279892" SatScale="1.232215" ValScale="1.006359"/>
    <Element HueDiv="5" SatDiv="14" ValDiv="0" HueShift="5.705714" SatScale="1.202994" ValScale="1.004774"/>
    <Element HueDiv="5" SatDiv="15" ValDiv="0" HueShift="5.056148" SatScale="1.171323" ValScale="1.002548"/>
    <Element HueDiv="5" SatDiv="16" ValDiv="0" HueShift="4.483925" SatScale="1.144000" ValScale="1.000093"/>
    <Element HueDiv="5" SatDiv="17" ValDiv="0" HueShift="4.048671" SatScale="1.123690" ValScale="0.997852"/>
    <Element HueDiv="5" SatDiv="18" ValDiv="0" HueShift="3.726798" SatScale="1.110443" ValScale="0.996430"/>
    <Element HueDiv="5" SatDiv="19" ValDiv="0" HueShift="3.431592" SatScale="1.102799" ValScale="0.996686"/>
    <Element HueDiv="5" SatDiv="20" ValDiv="0" HueShift="3.017938" SatScale="1.098300" ValScale="0.999964"/>
    <Element HueDiv="5" SatDiv="21" ValDiv="0" HueShift="2.306209" SatScale="1.093777" ValScale="1.008094"/>
    <Element HueDiv="5" SatDiv="22" ValDiv="0" HueShift="1.420274" SatScale="1.088263" ValScale="1.019747"/>
    <Element HueDiv="5" SatDiv="23" ValDiv="0" HueShift="0.675785" SatScale="1.082778" ValScale="1.030766"/>
    <Element HueDiv="5" SatDiv="24" ValDiv="0" HueShift="0.227874" SatScale="1.077886" ValScale="1.038153"/>
    <Element HueDiv="5" SatDiv="25" ValDiv="0" HueShift="0.049257" SatScale="1.073546" ValScale="1.041347"/>
    <Element HueDiv="5" SatDiv="26" ValDiv="0" HueShift="-0.011147" SatScale="1.069071" ValScale="1.042060"/>
    <Element HueDiv="5" SatDiv="27" ValDiv="0" HueShift="-0.137017" SatScale="1.063323" ValScale="1.043025"/>
    <Element HueDiv="5" SatDiv="28" ValDiv="0" HueShift="-1.137917" SatScale="1.046888" ValScale="1.040396"/>
    <Element HueDiv="5" SatDiv="29" ValDiv="0" HueShift="-2.224839" SatScale="1.027812" ValScale="1.046409"/>
    <Element HueDiv="6" SatDiv="0" ValDiv="0" HueShift="0.000000" SatScale="1.000000" ValScale="1.000000"/>
    <Element HueDiv="6" SatDiv="1" ValDiv="0" HueShift="7.387891" SatScale="1.240897" ValScale="0.999856"/>
    <Element HueDiv="6" SatDiv="2" ValDiv="0" HueShift="7.644227" SatScale="1.260714" ValScale="0.999915"/>
    <Element HueDiv="6" SatDiv="3" ValDiv="0" HueShift="7.771437" SatScale="1.273730" ValScale="1.000138"/>
    <Element HueDiv="6" SatDiv="4" ValDiv="0" HueShift="7.837632" SatScale="1.282737" ValScale="1.000482"/>
    <Element HueDiv="6" SatDiv="5" ValDiv="0" HueShift="7.872077" SatScale="1.289093" ValScale="1.000911"/>
    <Element HueDiv="6" SatDiv="6" ValDiv="0" HueShift="7.889065" SatScale="1.293525" ValScale="1.001389"/>
    <Element HueDiv="6" SatDiv="7" ValDiv="0" HueShift="7.893938" SatScale="1.296375" ValScale="1.001884"/>
    <Element HueDiv="6" SatDiv="8" ValDiv="0" HueShift="7.885059" SatScale="1.297680" ValScale="1.002369"/>
    <Element HueDiv="6" SatDiv="9" ValDiv="0" HueShift="7.854476" SatScale="1.297202" ValScale="1.002823"/>
    <Element HueDiv="6" SatDiv="10" ValDiv="0" HueShift="7.788161" SatScale="1.294410" ValScale="1.003227"/>
    <Element HueDiv="6" SatDiv="11" ValDiv="0" HueShift="7.666135" SatScale="1.288444" ValScale="1.003554"/>
    <Element HueDiv="6" SatDiv="12" ValDiv="0" HueShift="7.462516" SatScale="1.278069" ValScale="1.003744"/>
    <Element HueDiv="6" SatDiv="13" ValDiv="0" HueShift="7.147173" SatScale="1.261756" ValScale="1.003683"/>
    <Element HueDiv="6" SatDiv="14" ValDiv="0" HueShift="6.701318" SatScale="1.238680" ValScale="1.003215"/>
    <Element HueDiv="6" SatDiv="15" ValDiv="0" HueShift="6.159135" SatScale="1.210962" ValScale="1.002277"/>
    <Element HueDiv="6" SatDiv="16" ValDiv="0" HueShift="5.615848" SatScale="1.183451" ValScale="1.000947"/>
